app/dist/common/images/mineral-resources.svg

<svg height="18" width="18" xmlns="http://www.w3.org/2000/svg"><path d="m0 0h18v18h-18z" fill="#f0f3fa"/><path d="m7.04 8.88c.61-1.05 1.2-1.96 1.73-2.88 1.34 1.55 2.67 3.05 4.06 4.67-.32.06-.81.12-.81.12s-.18-.14-.28-.24c-1.14-1.04-2.19-2.07-3.36-3.05-.36.51-.82 1-1.19 1.52 1.16 1.36 3.23 3.98 3.23 3.98l-3.79-3.22-.26.3.17-.37c-.85-.74-1.52-1.48-2.4-2.24-.19.29-2.14 2.53-2.14 2.53s1.66-2.54 2.51-3.99c.85 1.02 1.67 1.84 2.53 2.87z" fill="#211d1e"/><path d="m13.47 11.5 1.23 1.5s-1.68-1.34-2.45-2l.29-.1c.74-.28 1.46-.9 1.46-1.92 0-.93-.67-1.98-1.95-1.98h-1.85c-.32-.38-.47-.46-.93-1h2.85c2.06 0 2.92 1.5 2.87 2.98-.03 1.07-.67 1.91-1.53 2.52zm-5.11-5.5c-.25.43-.62 1-.62 1l-2.3-.36s-.3-.3-.59-.64zm-4.35.32s-.96-.2-1.4-.32h1.63a4.5 4.5 0 0 1 -.23.32z" fill="#ce352d"/></svg>

<!-- by TradingView --><svg xmlns="http://www.w3.org/2000/svg" width="18" height="18"><path fill="#F0F3FA" d="M0 0h18v18H0z"/><path d="M7.04 8.88C7.65 7.83 8.24 6.92 8.77 6c1.34 1.55 2.67 3.05 4.06 4.67-.32.06-.81.12-.81.12s-.18-.14-.28-.24C10.6 9.51 9.55 8.48 8.38 7.5c-.36.51-.82 1-1.19 1.52C8.35 10.38 10.42 13 10.42 13L6.63 9.78l-.26.3.17-.37c-.85-.74-1.52-1.48-2.4-2.24C3.95 7.76 2 10 2 10s1.66-2.54 2.51-3.99c.85 1.02 1.67 1.84 2.53 2.87z" fill="#211D1E"/><path d="M13.47 11.5L14.7 13s-1.68-1.34-2.45-2l.29-.1c.74-.28 1.46-.9 1.46-1.92C14 8.05 13.33 7 12.05 7H10.2c-.32-.38-.47-.46-.93-1h2.85c2.06 0 2.92 1.5 2.87 2.98-.03 1.07-.67 1.91-1.53 2.52zM8.36 6c-.25.43-.62 1-.62 1l-2.3-.36s-.3-.3-.59-.64h3.51zm-4.35.32s-.96-.2-1.4-.32h1.63a4.5 4.5 0 01-.23.32z" fill="#CE352D"/></svg>
